**kern	**kern	**dynam
*part1	*part1	*part1
*staff2	*staff1	*
*I"Piano	*	*
*clefG2	*clefG2	*
*k[]	*k[]	*
=1	=1	=1
2B 2f#X	8ee] 8gg]	.
.	4b 4ff#X	.
.	4b 4ff#	.
4r	.	.
.	[8b [8ff#	.
*clefF4	*	*
=	=	=
!	!	!LO:DY:a
4CC 4GG	8b] 8ff#]	[ pp
.	4g 4cc 4ee	.
(4c 4e	.	.
.	4g 4cc 4ee	.
4G) 4d	.	.
.	[8g [8b [8dd	.
=	=	=
4AAA 4AA	8g] 8b] 8dd]	.
.	4e 4a 4cc	.
(4A 4c	.	.
.	4e 4a 4cc	.
4E) 4B	.	.
.	[8e [8g [8b	.
=	=	=
4FF 4C	8e] 8g] 8b]	.
.	4c 4f 4a	.
[4F [4A	.	.
.	4c 4f 4a	.
4D 4F] 4A]	.	.
.	[8d [8f [8a	.
=	=	=
4CC 4C	8d] 8f] 8a]	.
.	4e 4a 4ee	.
4E 4A 4c	.	.
.	4e 4a 4ee	.
4GGG 4GG	.	.
.	[8d [8f [8b	.
=	=	=
!	!LO:TX:a:i:t=cresc.	!
2AAA 2AA	8d] 8f] 8b]	.
.	4c 4f 4cc	.
.	4c 4f 4cc	.
4BBB 4BB	.	.
.	[8f [8g [8dd	.
=	=	=
2CC 2C	8f] 8g] 8dd]	.
.	4e 4g 4ee	.
.	4e 4g 4ee	.
4DD 4D	.	.
.	[8g [8b [8ff	.
=	=	=
*-	*-	*-
!!!system-decoration: {(s1,s2)}
